X: 30883
T: COTILLION No. 6. BLACK HAWK SETT tune 3
%R: reel
B: Elias Howe "The Musician's Companion" Part 3 1844 p.88 #3
S: http://imslp.org/wiki/The_Musician's_Companion_(Howe,_Elias)
Z: 2015 John Chambers <jc:trillian.mit.edu>
N: Shortened last note in strain 1 to fix the rhythm.
M: 2/4
L: 1/16
K: G
% - - - - - - - - - - - - - - - - - - - - - - - - - - - - -
D2 |\
G2B2d2D2 | GDdD d2ef | gdBd ecAc | BdGB A2D2 |\
G2B2d2D2 | GDBD d2ef | gdBd ecAc | BdFA G2 H|]
Bc |\
dedB AGEG | D<DE<E F<FG<G | BABe dBAG | B2A2A2 Bc |\
decB AGEG | DDEE FFGG | BABe dBAG | B2G2"^D.C."G2 |]
% - - - - - - - - - - Dance description - - - - - - - - - -
%%begintext align
%% First couple forward and back,
%% cross over,
%% chassa de chassa,
%% cross back,
%% all balance,
%% all chassa across partners.
%% Next 2 forward and back, &c.
%%endtext
% - - - - - - - - - - - - - - - - - - - - - - - - - - - - -
%%sep 1 1 300
